X:38
T:Peg Ryan's
Z: id:dc-polka-31
M:2/4
L:1/8
K:D Major
fA BA|fA BA|d2 e>f|ed BA|!
fA BA|fA BA|d2 e>f|ed d2:|!
fa fe|ed BA|d2 e>f|ed BA|!
fa fe|ed BA|d2 e>f|ed d2:|!

